!!!!SEGMENT: pl-kk--kk-i-158_anonim--fortem-virili-pectore.krn
!!!cenid: 17xx:2599
!!!COM: Anonim
!!!COM-rismID: pe30004985
!!!CDT:
!!!CNT:
!!!OTL: Fortem virili pectore
!!!PDT:
!!!AGN: Sacred
!!!YEC: Copyright 2022 Narodowy Instytut Fryderyka Chopina (https://polishscores.org)
!!!YEM: License CC-BY-4.0 (https://creativecommons.org/licenses/by/4.0)
!!!SMS-siglum: PL-Kk
!!!SMS-shelfmark: Kk.I.158
!!!SMS-variant:
!!!SMS-altvar:
!!!SMS-shelfwork: W
!!!NIFC-rismSourceID: 1001151176
!!!NIFC-rismChildID: 1001151176
!!!NIFC-islandoraID: pl-kk:3736
!!!URL-pdf-islandora: https://repozytorium.nifc.pl/islandora/object/pl-kk:3736/datastream/PDF/view
!!!URL-scan: https://polish.musicsources.pl/pl/lokalizacje/galeria/rekopisy/5786/1 @EN{Scan on Polish Music Sources Website} @PL{Skany w portalu Dziedzictwo Muzyki Polskiej w otwartym dostępie}
!!!IIIF:
!!!ONB-nifc:
!!!AIN: 1 alto 1 bass 1 soprn 1 tenor
!!!key: d:dor
**kern	**text	**text	**kern	**text	**text	**text	**kern	**text	**text	**text	**dynam	**kern	**text	**text	**text	**kern	**text	**text	**text
*part5	*part5	*part5	*part4	*part4	*part4	*part4	*part3	*part3	*part3	*part3	*part3	*part2	*part2	*part2	*part2	*part1	*part1	*part1	*part1
*staff5	*staff5	*staff5	*staff4	*staff4	*staff4	*staff4	*staff3	*staff3	*staff3	*staff3	*	*staff2	*staff2	*staff2	*staff2	*staff1	*staff1	*staff1	*staff1
*IGripn	*	*	*	*	*	*	*	*	*	*	*	*	*	*	*	*	*	*	*
*	*	*	*ICvox	*	*	*	*ICvox	*	*	*	*	*ICvox	*	*	*	*ICvox	*	*	*
*	*	*	*Ibass	*	*	*	*Itenor	*	*	*	*	*Ialto	*	*	*	*Isoprn	*	*	*
*I"Baſso. Ripieno.	*	*	*I"Baſso.	*	*	*	*I"Tenore	*	*	*	*	*I"Alto.	*	*	*	*I"Canto.	*	*	*
*I'B rip	*	*	*I'B	*	*	*	*I'T	*	*	*	*	*I'A	*	*	*	*I'S	*	*	*
*clefF4	*	*	*clefF4	*	*	*	*clefC4	*	*	*	*	*clefC3	*	*	*	*clefC1	*	*	*
*k[]	*	*	*k[]	*	*	*	*k[]	*	*	*	*	*k[]	*	*	*	*k[]	*	*	*
*d:dor	*	*	*d:dor	*	*	*	*d:dor	*	*	*	*	*d:dor	*	*	*	*d:dor	*	*	*
*M3/2	*	*	*M3/2	*	*	*	*M3/2	*	*	*	*	*M3/2	*	*	*	*M3/2	*	*	*
*	*v:1	*v:3	*	*v:1	*v:3	*	*	*v:1	*v:3	*	*	*	*v:1	*v:3	*	*	*v:1	*v:3	*
=1	=1	=1	=1	=1	=1	=1	=1	=1	=1	=1	=1	=1	=1	=1	=1	=1	=1	=1	=1
*2\right	*	*	*2\right	*	*	*	*2\right	*	*	*	*	*2\right	*	*	*	*2\right	*	*	*
2D/	For-	Car-	2D/	For-	Car-	.	2d\	For-	Car-	.	.	2f\	For-	Car-	.	2a\	For-	Car-	.
2D/	-tem	-nem	2D/	-tem	-nem	.	2d\	-tem	-nem	.	.	2f\	-tem	-nem	.	2a\	-tem	-nem	.
2C#X/	Vi-	do-	2C#X/	Vi-	do-	.	2A\	Vi-	do-	.	.	2e\	vi-	do-	.	2a\	vi-	do-	.
=2	=2	=2	=2	=2	=2	=2	=2	=2	=2	=2	=2	=2	=2	=2	=2	=2	=2	=2	=2
1D	-ri-	-mans	1D	-ri-	-mans	.	1d	-ri-	-mans	.	.	1f	-ri-	-mans	.	1fn	-ri-	-mans	.
2E\	-li	je-	2E\	-li	je-	.	2c\	-li	je-	.	.	2c/	-li	je-	.	2g\	-li	je-	.
=3	=3	=3	=3	=3	=3	=3	=3	=3	=3	=3	=3	=3	=3	=3	=3	=3	=3	=3	=3
2.F\	pec-	-ju-	2.F\	pec-	-ju-	.	2.c\	pec-	-ju-	.	.	2.f\	pec-	-ju-	.	2.a\	pec-	-ju-	.
4F\	-to-	-ni-	4F\	-to-	-ni-	.	4c\	-to-	-ni-	.	.	4f\	-to-	-ni-	.	4a\	-to-	-ni-	.
2F\	-re	-js,	2F\	-re	-js,	.	2c\	-re	-js	.	.	2f\	-re,	-js	.	2a,\	-re	-js	.
=4	=4	=4	=4	=4	=4	=4	=4	=4	=4	=4	=4	=4	=4	=4	=4	=4	=4	=4	=4
2D\	lau-	dul-	2D/	Lau-	dul-	.	2d\	Lau-	dul-	.	.	2f#X\	Lau-	dul-	.	2a\	Lau-	dul-	.
2D\	-de-	-ci-	2D/	-de-	-ci-	.	2d\	-de-	-ci-	.	.	2f#\	-de-	-ci-	.	2a\	-de-	-ci-	.
2D\	-m(us)	-que	2D/	-m(us)	-q(ue)	.	2d\	-m(us)	-que	.	.	2f#\	-mus	-que	.	2a\	-m(us)	-que	.
=5	=5	=5	=5	=5	=5	=5	=5	=5	=5	=5	=5	=5	=5	=5	=5	=5	=5	=5	=5
(2G\	o-	men-	(2G\	o-	men-	.	2d\	o-	men-	.	.	1g	om-	men-	.	1bn	om-	men-	.
2E\)	.	.	2E\)	.	.	.	2e\	.	.	.	.	.	.	.	.	.	.	.	.
2A\	-mnes	-tem	2A\	-mnes	-tem	.	2A/	-mnes	-tem	.	.	2e\	-nes	-tem	.	2cc\	-nes	-tem	.
!LO:LB:g=original	!	!	!	!	!	!	!	!	!	!	!	!	!	!	!	!	!	!	!
=6	=6	=6	=6	=6	=6	=6	=6	=6	=6	=6	=6	=6	=6	=6	=6	=6	=6	=6	=6
1E	Fe-	pa-	1E	Fe-	pa-	.	1A	Fe-	pa-	.	.	1e	Fe-	pa-	.	1b	Fe-	pa-	.
2E\	-mi-	-bu-	2E\	-mi-	-bu-	.	2G#X/	-mi-	-bu-	.	.	2e\	-mi-	-bu-	.	2b\	-mi-	-bu-	.
=7	=7	=7	=7-	=7	=7	=7	=7	=7	=7	=7	=7	=7-	=7	=7	=7	=7	=7	=7	=7
1.AA,	-nam	-lo	1.AA	-nam	-lo	.	1.A	-na(m)	-lo	.	.	1.e	-na(m)	-lo	.	1.cc#X,	-nam	-lo.	.
!	!	!	!LO:LB:g=original	!	!	!	!LO:LB:g=original	!	!	!	!	!LO:LB:g=original	!	!	!	!LO:LB:g=original	!	!	!
=8	=8	=8	=8	=8	=8	=8	=8	=8	=8	=8	=8	=8	=8	=8	=8	=8	=8	=8	=8
2A\	quae	O-	2A\	quae	o-	.	2cn\	quae	o-	.	.	2e\	quae	O-	.	2a\	quae	O-	.
2A\	san-	-ra-	2A\	san-	-ra-	.	2c\	san-	-ra-	.	.	2e\	San-	-ra-	.	2a\	san-	-ra-	.
2F\	-cti-	-ti-	2F\	-cti-	-ti-	.	2d\	-cti-	-ti-	.	.	2f\	-cti-	-ti-	.	2a\	-cti-	-ti-	.
=9	=9	=9	=9	=9	=9	=9	=9	=9	=9	=9	=9	=9	=9	=9	=9	=9	=9	=9	=9
1B-X	-ta-	-o-	1B-X	-ta-	-o-	.	1B-X	-ta-	-o-	.	.	(2d\	-ta-	-o-	.	(2f/	-ta-	-o-	.
.	.	.	.	.	.	.	.	.	.	.	.	2e\)	.	.	.	2g/)	.	.	.
2A\	-tis	nis	2A\	-tis	nis	.	2c\	-tis	nis	.	.	[<2f\	-tis	nis	.	2a/	-tis	-nis	.
=10	=10	=10	=10	=10	=10	=10	=10	=10	=10	=10	=10	=10	=10	=10	=10	=10	=10	=10	=10
1G	glo-	nu-	1G	glo-	nu-	.	1B-X	glo-	nu-	.	.	2f\]	.	.	.	1b-X	glo-	nu-	.
.	.	.	.	.	.	.	.	.	.	.	.	2f\	glo-	nu-	.	.	.	.	.
2C/	-ri-	-tri-	2G\	-ri-	-tri-	.	2G/	-ri-	-tri-	.	.	2e\	-ri-	-tri-	.	2b-\	-ri-	-tri-	.
=11	=11	=11	=11	=11	=11	=11	=11	=11	=11	=11	=11	=11	=11	=11	=11	=11	=11	=11	=11
1.F,	-a	-ens,	1.F,	-a	-ens	.	1.A,	-â	-ens	.	.	1.f,	-â	-ens,	.	1.a,	-â	-ens,	.
=12	=12	=12	=12	=12	=12	=12	=12	=12	=12	=12	=12	=12	=12	=12	=12	=12	=12	=12	=12
!LO:N:vis=00	!	!	!LO:N:vis=00	!	!	!	!	!	!	!	!LO:DY:b:t=Forte	!	!	!	!	!	!	!	!
00.r	.	.	00.r	.	.	.	2f\	u-	Coe-	.	f	(2a\	u-	Coe-	.	2ccn\	u-	coe-	.
.	.	.	.	.	.	.	2e\	-bi-	-li	.	.	2g\)	-bi-	-li	.	2cc\	-bi-	-li	.
.	.	.	.	.	.	.	2d\	-que	po-	.	.	2f\	-que	po-	.	2dd\	-que	po-	.
=13	=13	=13	=13	=13	=13	=13	=13	=13	=13	=13	=13	=13	=13	=13	=13	=13	=13	=13	=13
.	.	.	.	.	.	.	1c	ful-	-ti-	.	.	(2g\	ful-	-ti-	.	1ee	ful-	-ti-	.
.	.	.	.	.	.	.	.	.	.	.	.	2e\)	.	.	.	.	.	.	.
.	.	.	.	.	.	.	[<2d\	-get	-tur	.	.	[<2a\	-get	-tur	.	2dd\	-get	-tur	.
=14	=14	=14	=14	=14	=14	=14	=14	=14	=14	=14	=14	=14	=14	=14	=14	=14	=14	=14	=14
.	.	.	.	.	.	.	2d\]	.	.	.	.	2a\]	.	.	.	2ccn\	in-	gau-	.
.	.	.	.	.	.	.	2e\	in-	gau-	.	.	2a\	in-	gau-	.	2.b\	-cly-	.	.
.	.	.	.	.	.	.	2E/	-cly-	-di-	.	.	2g#X\	-cly-	-di-	.	.	.	.	.
.	.	.	.	.	.	.	.	.	.	.	.	.	.	.	.	4b\	.	-di-	.
=15	=15	=15	=15	=15	=15	=15	=15	=15	=15	=15	=15	=15	=15	=15	=15	=15	=15	=15	=15
.	.	.	.	.	.	.	1.A	-ta	-js.	.	.	1.a	-ta	-js.	.	1.cc#X	-ta	-js.	.
*	*	*	*	*	*	*	*	*	*	*	*	*	*	*	*	*custos:a	*	*	*
!	!	!	!	!	!	!	!LO:LB:g=original	!	!	!	!	!LO:LB:g=original	!	!	!	!LO:LB:g=original	!	!	!
=16	=16	=16	=16	=16	=16	=16	=16	=16	=16	=16	=16	=16	=16	=16	=16	=16	=16	=16	=16
2A\	quae	O-	2A\	quae	O-	.	2c\	quae	O-	.	.	2e\	quae	O-	.	2a\	quae	O-	.
2A\	san-	-ra-	2A\	san-	-ra-	.	2c\	san-	-ra-	.	.	2e\	san-	-ra-	.	2a\	san-	-ra-	.
!LO:TX:t=P:problem:LO:SIC:v:t=custos -B	!	!	!	!	!	!	!	!	!	!	!	!	!	!	!	!	!	!	!
2F\	-cti-	-ti-	2F\	-cti-	-ti-	.	2d\	-cti-	-ti-	.	.	2f\	-cti-	-ti-	.	2a\	-cti-	-ti-	.
!LO:LB:g=original	!	!	!	!	!	!	!	!	!	!	!	!	!	!	!	!	!	!	!
=17	=17	=17	=17	=17	=17	=17	=17	=17	=17	=17	=17	=17	=17	=17	=17	=17	=17	=17	=17
1B-X	-ta-	-o-	1B-X	-ta-	-o-	.	1B-X	-ta-	-o-	.	.	(2d\	-ta-	-o-	.	(2f/	-ta-	-o-	.
.	.	.	.	.	.	.	.	.	.	.	.	2e\)	.	.	.	2g/)	.	.	.
2A\	-tis	-nis	2A\	-tis	-nis	.	2c\	-tis	-nis	.	.	[<2f\	-tis	-nis	.	2a/	-tis	-nis	.
=18	=18	=18	=18	=18	=18	=18	=18	=18	=18	=18	=18	=18	=18	=18	=18	=18	=18	=18	=18
1G	glo-	nu-	1G	glo-	nu-	.	1B-X	glo-	nu-	.	.	2f\]	.	.	.	1b-X	glo-	nu-	.
.	.	.	.	.	.	.	.	.	.	.	.	2f\	glo-	nu-	.	.	.	.	.
2C/	-ri-	-tri-	2G\	-ri-	-tri-	.	2G/	-ri-	-tri-	.	.	2e\	-ri-	-tri-	.	2b-\	-ri-	-tri-	.
=19	=19	=19	=19-	=19	=19	=19	=19	=19	=19	=19	=19	=19	=19	=19	=19	=19-	=19-	=19	=19
1.F	-â,	-ens,	1.F	-a	-ens	.	1.A	-â	-ens	.	.	1.f	-â,	-ens	.	1.a	-â	-ens	.
!	!	!	!LO:LB:g=original	!	!	!	!	!	!	!	!	!	!	!	!	!	!	!	!
=20	=20	=20	=20	=20	=20	=20	=20	=20	=20	=20	=20	=20	=20	=20	=20	=20	=20	=20	=20
2B-X\	u-	coe-	2B-X\	u-	coe-	.	2d\	u-	Coe-	.	.	2f\	u-	coe-	.	2b-X\	u-	Coe-	.
2A\	-bi-	-li	2A\	-bi-	-li	.	2c\	-bi-	-li	.	.	2f\	-bi-	-li	.	2f/	-bi-	-li	.
2G\	-que	po-	2G\	-que	po-	.	2B-\	-que	po-	.	.	2g\	-que	po-	.	2b-\	-q(ue)	po-	.
=21	=21	=21	=21	=21	=21	=21	=21	=21	=21	=21	=21	=21	=21	=21	=21	=21	=21	=21	=21
1F	ful-	-ti-	1F	ful-	-ti-	.	1A	ful-	-ti-	.	.	1a	ful-	-ti-	.	1cc	ful-	-ti-	.
2G\	-get	-tur	[<2G\	-get	-tur	.	2d\	-get	-tur	.	.	[<2g\	-get	-tur	.	2b-X\	-get	-tur	.
=22	=22	=22	=22	=22	=22	=22	=22	=22	=22	=22	=22	=22	=22	=22	=22	=22	=22	=22	=22
!	!	!	!	!	!	!	!	!	!	!	!	!	!	!	!	!LO:SIC:v:s=2b-\	!	!	!
(2G\	in-	gau-	2G\]	.	.	.	1d	in-	gau-	.	.	2g\]	.	.	.	2b\	.	.	.
2A\)	.	.	2A\	in-	gau-	.	.	.	.	.	.	2.e\	in-	gau-	.	2.a\	in-	gau-	.
2AA/	-cly-	-di-	2AA/	-cly-	-di-	.	2c#X\	-cly-	-di-	.	.	.	.	.	.	.	.	.	.
.	.	.	.	.	.	.	.	.	.	.	.	4e\	-cly-	-di-	.	4a\	-cly-	-di-	.
=23	=23	=23	=23	=23	=23	=23	=23	=23	=23	=23	=23	=23	=23	=23	=23	=23	=23	=23	=23
!LO:N:vis=1.	!	!	!LO:N:vis=1.	!	!	!	!LO:N:vis=0	!	!	!	!	!LO:N:vis=1.	!	!	!	!	!	!	!
0.D	-ta	-js	0.D	-ta.	-js.	.	0.d;	-ta	-js.	.	.	0.f#X,	-ta.	-js.	.	0.a	-ta	-js.	.
!LO:LB:g=original	!	!	!LO:LB:g=original	!	!	!	!LO:LB:g=original	!	!	!	!	!LO:LB:g=original	!	!	!	!LO:LB:g=original	!	!	!
=24||	=24||	=24||	=24||	=24||	=24||	=24||	=24||	=24||	=24||	=24||	=24||	=24||	=24||	=24||	=24||	=24||	=24||	=24||	=24||
*M3/2	*v:2	*	*M3/2	*v:2	*v:4	*v:5	*M3/2	*v:2	*v:4	*v:5	*	*M3/2	*v:2	*v:4	*v:5	*M3/2	*v:2	*v:4	*v:5
2A\	Haec	.	2A\	Haec	Rex	De-	2c#X\	Haec	Rex	DE-	.	2e\	Haec	Rex	De-	2a\	Haec	Rex	De-
2A\	san-	.	2A\	san-	Chris-	-o	2c#\	san-	(Chris)-	-o	.	2e\	san-	(Chris)-	-o	2a\	san-	(Chris)-	-o
2A\	-cto	.	2A,\	-cto	-te	Pa-	2c#\	-cto	-te	Pa-	.	2e\	-cto	-te	Pa-	2a\	-cto	-te	Pa-
=25	=25	=25	=25	=25	=25	=25	=25	=25	=25	=25	=25	=25	=25	=25	=25	=25	=25	=25	=25
1F	amo-	.	1F	a-	Vir-	-tri	1d	a-	Vir-	-tri	.	1f	a-	Vir-	-tri	1a	a-	Vir-	-tri
2D\	-re	.	2D\	-mo-	-tus	sit	2d\	-mo-	-tus	sit	.	2f\	-mo-	-tus	sit	2a\	-mo-	-tus	sit
=26	=26	=26	=26	=26	=26	=26	=26	=26	=26	=26	=26	=26	=26	=26	=26	=26	=26	=26	=26
2.A\	sau-	.	2.A\	-re	For-	glo-	2.cn\	-re	For-	glo-	.	2.e\	-re	For-	glo-	2.a\	-re	For-	glo-
4A\	-ci-	.	4A\	sau-	-ti-	-ri-	4c\	sau-	-ti-	-ri-	.	4e\	sau-	-ti-	-ri-	4a\	sau-	-ti-	-ri-
2A\	-a	.	2A\	-cia,	-um	-a,	2c\	-cia	-um!	-a	.	2e\	-cia,	-um	-a	2a\	-cia,	-um!	-a,
=27	=27	=27	=27	=27	=27	=27	=27	=27	=27	=27	=27	=27	=27	=27	=27	=27	=27	=27	=27
2E\	dum	.	2E\	dum	Qui	E-	2G/	dum	qui	E-	.	2g\	dum	qui	E-	2cc\	dum	qui	E-
2F\	mun-	.	2F\	mun-	mag-	-jus-	2A\	mun-	mag-	-jus-	.	2f\	mun-	mag-	-jus-	2cc\	mun-	mag-	-jus-
2G\	-di	.	2G\	-di	-na	-que	2Bn\	-di	-na	-q(ue)	.	2f\	-di	-na	-q(ue)	2bn\	-di	.	.
=28	=28	=28	=28	=28	=28	=28	=28	=28	=28	=28	=28	=28	=28	=28	=28	=28	=28	=28	=28
1A	a-	.	1A	a-	so-	So-	1c	a-	so-	So-	.	1e	a-	so-	So-	1cc	a-	-na	-que
2F\	-morem	.	[<2F\	-mo-	-lus	-li	[<2c\	-mo-	-lus	-li	.	2a\	-mo-	-lus	-li	2ff\	-mo-	so-	So-
*custos:F	*	*	*	*	*	*	*	*	*	*	*	*	*	*	*	*	*	*	*
!LO:LB:g=original	!	!	!	!	!	!	!	!	!	!	!	!	!	!	!	!	!	!	!
=29	=29	=29	=29	=29	=29	=29	=29	=29	=29	=29	=29	=29	=29	=29	=29	=29	=29	=29	=29
2F\	no-	.	2F\]	-rem	.	.	2c\]	-rem	.	.	.	2a\	-rem	ef-	Fi-	2ff\	-rem	-lus	-li
2G\	-xi-	.	2G\	no-	ef-	Fi-	2c\	no-	ef-	Fi-	.	2.g\	no-	.	.	2.dd\	no-	ef-	Fi-
2GG/	-um	.	2G\	-xi-	-fi-	-li-	2B\	-xi-	-fi-	-li-	.	.	.	.	.	.	.	.	.
.	.	.	.	.	.	.	.	.	.	.	.	4g\	-xi-	-fi-	-li-	4dd\	-xi-	-fi-	-li-
=30	=30	=30	=30	=30	=30	=30	=30	=30	=30	=30	=30	=30-	=30	=30	=30	=30	=30	=30	=30
1.C,	.	.	1.C	-um	-cis:	-o	1.c,	-um	-cis.	-o	.	1.e,	-um	-cis:	-o,	1.cc	-um	-cis,	-o,
*	*	*	*	*	*	*	*	*	*	*	*	*	*	*	*	*custos:ee	*	*	*
!	!	!	!LO:LB:g=original	!	!	!	!LO:LB:g=original	!	!	!	!	!	!	!	!	!LO:LB:g=original	!	!	!
=31	=31	=31	=31	=31	=31	=31	=31	=31	=31	=31	=31	=31	=31	=31	=31	=31	=31	=31	=31
2c\	hor-	.	2c\	hor-	Hu-	Cum	2c\	hor-	Hu-	Cum	.	2g\	hor-	Hu-	Cum	2ee\	hor-	Hu-	Cum
2c\	-reſ-	.	2c\	-reſ-	-jus	Spi-	2c\	-reſ-	-jus	Spi-	.	2g\	-reſ-	-jus	Spi-	2ee\	-reſ-	-jus	Spi-
2c\	-cit,	.	2c\	-cit,	pre-	-ri-	2c\	-cit,	pre-	-ri-	.	2g\	-cit,	pre-	-ri-	2ee\	-cit,	pre-	-ri-
*	*	*	*	*	*	*	*	*	*	*	*	*custos:g	*	*	*	*	*	*	*
!	!	!	!	!	!	!	!	!	!	!	!	!LO:LB:g=original	!	!	!	!	!	!	!
=32	=32	=32	=32	=32	=32	=32	=32	=32	=32	=32	=32	=32	=32	=32	=32	=32	=32	=32	=32
1Bn	ad	.	1Bn	ad	-ca-	-tu	1d	ad	-ca-	-tu	.	1g	ad	-ca-	-tu	1dd	ad	-ca-	-tu
2B\	coe-	.	2B\	coe-	-tu	Pa-	2B\	coe-	-tu	Pa-	.	2g\	coe-	-tu	Pa-	2dd\	coe-	-tu	Pa-
=33	=33	=33	=33	=33	=33	=33	=33	=33	=33	=33	=33	=33	=33	=33	=33	=33	=33	=33	=33
1A	-le-	.	1A	-le-	quae-	-ra-	2e\	-le-	quae-	-ra-	.	1g	-leſ-	quae-	-ra-	1cc	-leſ-	quae-	-ra-
.	.	.	.	.	.	.	2.A/	.	.	.	.	.	.	.	.	.	.	.	.
2A\	-sti-	.	2A\	-sti-	-su-	-cli-	.	.	.	.	.	2f#X\	-ti-	-su-	-cli-	2cc\	-ti-	-su-	-cli-
.	.	.	.	.	.	.	4A/	-sti-	-su-	-cli-	.	.	.	.	.	.	.	.	.
=34	=34	=34	=34	=34	=34	=34	=34	=34	=34	=34	=34	=34-	=34	=34	=34	=34	=34	=34	=34
1.G,	-a	.	1.G	-a	-mus	-to	1.Bn,	-a	-m(us),	-to,	.	1.g,	-a,	-mus:	-to,	1.bn,	-a,	-m(us)	-to
=35	=35	=35	=35	=35	=35	=35	=35	=35	=35	=35	=35	=35	=35	=35	=35	=35	=35	=35	=35
2E\	i-	.	2E\	i-	au-	Nunc	2B\	i-	au-	Nunc	.	2g\	i-	au-	Nunc	2b\	i-	au-	Nunc
2E\	-ter	.	2E\	-ter	-di	et	2B\	-ter	-di	et	.	2g\	-ter	-di	et	2b\	-ter	-di	et
2E\	pe-	.	2E\	pe-	be-	per	2B\	pe-	be-	per	.	2g\	pe-	be-	per	2b\	pe-	be-	per
=36	=36	=36	=36	=36	=36	=36	=36	=36	=36	=36	=36	=36	=36	=36	=36	=36	=36	=36	=36
1C	-re-	.	1C	-re-	-ni-	om-	1A	-re-	-ni-	om-	.	2a\	-re-	-ni-	om-	2ee\	-re-	-ni-	om-
.	.	.	.	.	.	.	.	.	.	.	.	1e	-git	-gn(us)	-ne	1cc	-git	-gnus	-ne
2AA/	-git	.	2AA/	-git	-gnus	-ne	[<2A\	-git	-gnus	-ne	.	.	.	.	.	.	.	.	.
!LO:LB:g=original	!	!	!	!	!	!	!	!	!	!	!	!	!	!	!	!	!	!	!
=37	=37	=37	=37	=37	=37	=37	=37	=37	=37	=37	=37	=37	=37	=37	=37	=37	=37	=37	=37
1E	ar-	.	1E	ar-	Sup-	sae-	2A\]	.	.	.	.	1e	ar-	sup-	sae-	1b	ar-	sup-	sae-
.	.	.	.	.	.	.	2A\	ar-	Sup-	sae-	.	.	.	.	.	.	.	.	.
2E\	-du-	.	2E\	-du-	-pli-	-cu-	2G#X/	-du-	-pli-	-cu-	.	2e\	-du-	-pli-	-cu-	2b\	-du-	-pli-	-cu-
=38	=38	=38	=38-	=38	=38	=38	=38	=38	=38	=38	=38	=38	=38	=38	=38	=38-	=38	=38	=38
1.AA	-um	.	1.AA	-um	-ces,	-lum	1.A,	-um,	-ces	-lum	.	1.e,	-um,	-ces,	-lum,	1.cc#X	-um	-ces.	-lum
*	*	*	*	*	*	*	*custos:c#	*	*	*	*	*	*	*	*	*	*	*	*
!	!	!	!	!	!	!	!LO:TX:t=P:problem:custos z #	!	!	!	!	!	!	!	!	!	!	!	!
!	!	!	!LO:LB:g=original	!	!	!	!LO:LB:g=original	!	!	!	!	!	!	!	!	!	!	!	!
=39	=39	=39	=39	=39	=39	=39	=39	=39	=39	=39	=39	=39	=39	=39	=39	=39	=39	=39	=39
*	*	*	*	*	*	*	*	*	*	*	*	*	*	*	*	*	*	*ij	*
2A\	i-	.	2A\	i-	au-	Nunc	2c#X\	i-	au-	Nunc	.	2e\	i-	au-	Nunc	2ee\	i-	au-	Nunc
2A\	-ter	.	2A\	-ter	-di	et	2c#\	-ter	-di	et	.	2e\	-ter	-di	et	2ee\	-ter	-di	et
2A\	pe-	.	2A\	pe-	be-	per	2c#\	pe-	be-	per	.	2e\	pe-	be-	per	2ee\	pe-	be-	per
=40	=40	=40	=40	=40	=40	=40	=40	=40	=40	=40	=40	=40	=40	=40	=40	=40	=40	=40	=40
1F	-re-	.	1F	-re-	-ni-	om-	1d	-re-	-ni-	om-	.	2a\	-re-	-ni-	o(m-	1ff	-re-	-ni-	o(m-
.	.	.	.	.	.	.	.	.	.	.	.	1f	-git	-gn(us)	-n)e	.	.	.	.
2D\	-git	.	2D\	-git	-gnus	-ne	[<2d\	-git	-gnus	-ne	.	.	.	.	.	2ff\	-git	-gnus	-n)e
=41	=41	=41	=41	=41	=41	=41	=41	=41	=41	=41	=41	=41	=41	=41	=41	=41	=41	=41	=41
1A	ar-	.	1A	ar-	Sup-	sae-	2d\]	.	.	.	.	2a\	ar-	sup-	sae-	1ee	ar-	sup-	sae-
.	.	.	.	.	.	.	2d\	ar-	Sup-	sae-	.	1e	-du-	-pli-	-cu-	.	.	.	.
2AA/	-du-	.	2AA/	-du-	-pli-	-cu-	2c#X\	-du-	-pli-	-cu-	.	.	.	.	.	2ee\	-du-	-pli-	-cu-
=42	=42	=42	=42	=42	=42	=42	=42	=42	=42	=42	=42	=42	=42	=42	=42	=42-	=42	=42	=42
!	!	!	!	!	!	!	!	!	!	!	!	!LO:N:vis=0	!	!	!	!LO:N:vis=1	!	!	!
1.D	-um.	.	1.D	-um.	-ces.	-lum.	1.d	-um.	-ces.	-lum.	.	1.f#Xi;<	-um.	-ces.	-lu(m).	1.dd	-um	-ces.	-lum
*	*	*	*	*	*	*	*	*	*	*	*	*	*	*	*	*	*	*Xij	*
!	!	!	!	!	!	!	!	!	!	!	!	!LO:LB:g=original	!	!	!	!LO:LO:LB:g=original	!	!	!
=43||	=43||	=43||	=43||	=43||	=43||	=43||	=43||	=43||	=43||	=43||	=43||	=43||	=43||	=43||	=43||	=43-	=43||	=43||	=43||
1.G	A-	.	1.G	A-	.	.	1.B-X	A-	.	.	.	1.g	A-	.	.	1.dd	A-	.	.
=44	=44	=44	=44	=44	=44	=44	=44	=44	=44	=44	=44	=44	=44	=44	=44	=44	=44	=44	=44
!LO:N:vis=0	!	!	!LO:N:vis=0	!	!	!	!LO:N:vis=0	!	!	!	!	!LO:N:vis=0	!	!	!	!	!	!	!
0.D;	-men	.	0.D;	-men	.	.	0.A;	-men	.	.	.	0.f#X;	-men	.	.	0.dd;	-men	.	.
!LO:TX:b:rj:t=Ut Haec Sancto amore	!	!	!	!	!	!	!	!	!	!	!	!	!	!	!	!	!	!	!
==	==	==	==	==	==	==	==	==	==	==	==	==	==	==	==	==	==	==	==
*-	*-	*-	*-	*-	*-	*-	*-	*-	*-	*-	*-	*-	*-	*-	*-	*-	*-	*-	*-
!!!system-decoration: [(s1,s2,s3,s4)]s5
!!!RDF**kern: > = above
!!!RDF**kern: < = below
!!!RDF**kern: i = editorial accidental
!!!ENC: Filip Voros
!!!EED: Katarzyna Serwa
!!!END: 2024-04-12
!!!EEV: 2024-05-07
